svg/icon/gbp.svg

<svg xmlns="http://www.w3.org/2000/svg" xmlns:xlink="http://www.w3.org/1999/xlink" width="32" height="32" viewBox="0 0 32 32"><defs><linearGradient id="gbp-c" x1="50%" x2="50%" y1="0%" y2="100%"><stop offset="0%" stop-color="#FFF" stop-opacity=".5"/><stop offset="100%" stop-opacity=".5"/></linearGradient><circle id="gbp-b" cx="16" cy="15" r="15"/><filter id="gbp-a" width="111.7%" height="111.7%" x="-5.8%" y="-4.2%" filterUnits="objectBoundingBox"><feOffset dy=".5" in="SourceAlpha" result="shadowOffsetOuter1"/><feGaussianBlur in="shadowOffsetOuter1" result="shadowBlurOuter1" stdDeviation=".5"/><feComposite in="shadowBlurOuter1" in2="SourceAlpha" operator="out" result="shadowBlurOuter1"/><feColorMatrix in="shadowBlurOuter1" values="0 0 0 0 0 0 0 0 0 0 0 0 0 0 0 0 0 0 0.199473505 0"/></filter><path id="gbp-e" d="M11.0867925,13.815493 L11.0867925,11.4830986 C11.0867925,7.80704225 13.3056604,5.5 17.1622642,5.5 C20.0943396,5.5 21.7320755,6.74225352 23,8.33943662 L20.5169811,10.2408451 C19.5660377,9.07464789 18.6679245,8.39014085 17.1886792,8.39014085 C15.4188679,8.39014085 14.3622642,9.60704225 14.3622642,11.5591549 L14.3622642,13.815493 L20.9396226,13.815493 L20.9396226,16.4521127 L14.3622642,16.4521127 L14.3622642,20.7873239 L22.9471698,20.7873239 L22.9471698,23.5 L9,23.5 L9,21.5225352 L11.0867925,20.9140845 L11.0867925,16.4521127 L9,16.4521127 L9,13.815493 L11.0867925,13.815493 Z"/><filter id="gbp-d" width="125%" height="119.4%" x="-12.5%" y="-6.9%" filterUnits="objectBoundingBox"><feOffset dy=".5" in="SourceAlpha" result="shadowOffsetOuter1"/><feGaussianBlur in="shadowOffsetOuter1" result="shadowBlurOuter1" stdDeviation=".5"/><feColorMatrix in="shadowBlurOuter1" values="0 0 0 0 0 0 0 0 0 0 0 0 0 0 0 0 0 0 0.204257246 0"/></filter></defs><g fill="none" fill-rule="evenodd"><use fill="#000" filter="url(#gbp-a)" xlink:href="#gbp-b"/><use fill="#BC3FE0" xlink:href="#gbp-b"/><use fill="url(#gbp-c)" style="mix-blend-mode:soft-light" xlink:href="#gbp-b"/><circle cx="16" cy="15" r="14.5" stroke="#000" stroke-opacity=".097"/><g><use fill="#000" filter="url(#gbp-d)" xlink:href="#gbp-e"/><use fill="#FFF" xlink:href="#gbp-e"/></g></g></svg>

<svg xmlns="http://www.w3.org/2000/svg" xmlns:xlink="http://www.w3.org/1999/xlink" width="32" height="32" viewBox="0 0 32 32"><defs><linearGradient id="c" x1="50%" x2="50%" y1="0%" y2="100%"><stop offset="0%" stop-color="#FFF" stop-opacity=".5"/><stop offset="100%" stop-opacity=".5"/></linearGradient><circle id="b" cx="16" cy="15" r="15"/><filter id="a" width="111.7%" height="111.7%" x="-5.8%" y="-4.2%" filterUnits="objectBoundingBox"><feOffset dy=".5" in="SourceAlpha" result="shadowOffsetOuter1"/><feGaussianBlur in="shadowOffsetOuter1" result="shadowBlurOuter1" stdDeviation=".5"/><feComposite in="shadowBlurOuter1" in2="SourceAlpha" operator="out" result="shadowBlurOuter1"/><feColorMatrix in="shadowBlurOuter1" values="0 0 0 0 0 0 0 0 0 0 0 0 0 0 0 0 0 0 0.199473505 0"/></filter><path id="e" d="M11.087 13.815v-2.332c0-3.676 2.219-5.983 6.075-5.983 2.932 0 4.57 1.242 5.838 2.84l-2.483 1.9c-.951-1.165-1.85-1.85-3.328-1.85-1.77 0-2.827 1.217-2.827 3.17v2.255h6.578v2.637h-6.578v4.335h8.585V23.5H9v-1.977l2.087-.609v-4.462H9v-2.637h2.087z"/><filter id="d" width="125%" height="119.4%" x="-12.5%" y="-6.9%" filterUnits="objectBoundingBox"><feOffset dy=".5" in="SourceAlpha" result="shadowOffsetOuter1"/><feGaussianBlur in="shadowOffsetOuter1" result="shadowBlurOuter1" stdDeviation=".5"/><feColorMatrix in="shadowBlurOuter1" values="0 0 0 0 0 0 0 0 0 0 0 0 0 0 0 0 0 0 0.204257246 0"/></filter></defs><g fill="none" fill-rule="evenodd"><use fill="#000" filter="url(#a)" xlink:href="#b"/><use fill="#BC3FE0" xlink:href="#b"/><use fill="url(#c)" style="mix-blend-mode:soft-light" xlink:href="#b"/><circle cx="16" cy="15" r="14.5" stroke="#000" stroke-opacity=".097"/><use fill="#000" filter="url(#d)" xlink:href="#e"/><use fill="#FFF" xlink:href="#e"/></g></svg>
